src/icons/italic.svg

<svg width="16" height="16" viewBox="0 0 16 16" fill="none" xmlns="http://www.w3.org/2000/svg">
<path d="M9.00098 13.5928L8.9043 13.918H4L4.12305 13.5928C4.61523 13.5811 4.94043 13.54 5.09863 13.4697C5.35645 13.3701 5.54688 13.2324 5.66992 13.0566C5.86328 12.7812 6.0625 12.2891 6.26758 11.5801L8.3418 4.39062C8.51758 3.79297 8.60547 3.3418 8.60547 3.03711C8.60547 2.88477 8.56738 2.75586 8.49121 2.65039C8.41504 2.54492 8.29785 2.46582 8.13965 2.41309C7.9873 2.35449 7.68555 2.3252 7.23438 2.3252L7.33984 2H11.9453L11.8486 2.3252C11.4736 2.31934 11.1953 2.36035 11.0137 2.44824C10.75 2.56543 10.5479 2.73242 10.4072 2.94922C10.2725 3.16602 10.0967 3.64648 9.87988 4.39062L7.81445 11.5801C7.62695 12.2422 7.5332 12.6641 7.5332 12.8457C7.5332 12.9922 7.56836 13.1182 7.63867 13.2236C7.71484 13.3232 7.83203 13.4023 7.99023 13.4609C8.1543 13.5137 8.49121 13.5576 9.00098 13.5928Z" fill="white"/>
</svg>

<svg width="16" height="16" xmlns="http://www.w3.org/2000/svg"><path d="M9.001 13.593l-.097.325H4l.123-.325c.492-.012.817-.053.976-.123.257-.1.448-.238.57-.413.194-.276.394-.768.599-1.477l2.074-7.19c.176-.597.263-1.048.263-1.353a.643.643 0 0 0-.114-.387.683.683 0 0 0-.351-.237c-.153-.059-.454-.088-.906-.088L7.34 2h4.605l-.096.325c-.375-.006-.654.035-.835.123a1.358 1.358 0 0 0-.607.501c-.134.217-.31.697-.527 1.442l-2.066 7.19c-.187.661-.28 1.083-.28 1.265 0 .146.034.272.105.378.076.1.193.178.351.237.164.053.501.097 1.011.132z"/></svg>
